X:61
T:Celebrated Set Of Quadrilles No.1. Le4.061, A
T:Clare Dragoons,aka. Le4.061, The
T:Willie Was a Wanton Wag,aka. Le4.061
B:L.Leadley MS#4 c1850
Z:Village Music Project, 2016 Steve Mansfield
M:2/4
L:1/8
Q:2/4=60
N:I suggest the intention is P:ABAC
K:D
[P:A]| FA AB/c/ | d>e dA | FA A>f | {f}ed BA/G/ |
FA AB/c/ | d>e dA | FA Af | edd !fine!||
[P:B]a | faef | d>e fd | fa e>f | edBg |
faef | d>efg | a>A Af | e>d c/B/A/G/ !segno! ||
[P:C][K:F]A | f>a a/g/f/e/ | df/e/ d/e/f/d/ | e/b/a/g/ f/e/d/^c/ | de/f/ eA |
fa a/g/f/e/ | d/e/f/^f/ gb | b/a/g/f/ f/e/d/c/ | e/d/^c/B/ A/B/A/G/ !D.C.! |]

